src/icons/io.github.kolunmi.Bazaar.kde.svg

<svg width="128" height="128" viewBox="0 0 128 128" fill="none" xmlns="http://www.w3.org/2000/svg">
<path d="M100 11.9999H28C19.1634 11.9999 12 19.1633 12 27.9999V100C12 108.837 19.1634 116 28 116H100C108.837 116 116 108.837 116 100V27.9999C116 19.1633 108.837 11.9999 100 11.9999Z" fill="#1D99F3"/>
<path d="M70.1316 24L57.1219 25.2454V78.8155L69.994 76.8776V54.0378L87.2966 79.3702L100.861 75.0781L83.1437 50.7158L101 27.7374L87.159 24.5552L69.9943 47.5326L70.1316 24ZM40.6417 37.0542C40.4948 37.0696 40.3529 37.1344 40.2426 37.2451L35.1366 42.3502C34.9219 42.5655 34.8814 42.8994 35.0397 43.1601L41.0178 53.006C39.9575 54.7885 39.1077 56.7105 38.5003 58.7379L27.5254 61.0207C27.22 61.084 27 61.3545 27 61.6679V68.8879C27 69.1932 27.2089 69.4577 27.5031 69.5288L38.1555 72.1325C38.7235 74.4807 39.6038 76.7067 40.7672 78.7526L34.6013 88.1549C34.4293 88.4177 34.4653 88.7638 34.6875 88.9851L39.7917 94.0903C40.0064 94.3044 40.3416 94.3463 40.6034 94.189L50.2654 88.321C52.1633 89.4161 54.21 90.278 56.3732 90.8625L58.6276 101.701C58.691 102.009 58.9625 102.227 59.2738 102.227H66.4947C66.7983 102.227 67.0632 102.019 67.1356 101.722L69.7909 90.8605C72.0208 90.2587 74.1298 89.3617 76.0741 88.2168L85.5955 94.4598C85.8573 94.6322 86.2036 94.5977 86.4258 94.3756L91.5319 89.2705C91.7478 89.0545 91.7865 88.7207 91.6278 88.4607L88.1519 82.7323L87.0274 83.0879C86.8635 83.1397 86.6847 83.0785 86.5883 82.9358C86.5883 82.9358 84.3712 79.6904 81.5079 75.4996C78.085 82.1986 71.1211 86.7876 63.0793 86.7876C51.6537 86.7876 42.3908 77.5244 42.3908 66.0983C42.3908 57.6929 47.4043 50.4641 54.6013 47.2259V41.8885C53.2915 42.3468 52.0252 42.8993 50.8225 43.5545C50.8225 43.5545 50.8207 43.5514 50.8173 43.5484L41.0718 37.1566C40.9405 37.0708 40.7884 37.0366 40.6415 37.0517L40.6417 37.0542Z" fill="#FCFCFC"/>
</svg>

<svg xmlns="http://www.w3.org/2000/svg" width="128" height="128" fill="none" viewBox="0 0 128 128"><path fill="#1d99f3" d="M100 12H28c-8.837 0-16 7.163-16 16v72c0 8.837 7.163 16 16 16h72c8.837 0 16-7.163 16-16V28c0-8.837-7.163-16-16-16"/><path fill="#fcfcfc" d="m70.132 24-13.01 1.245v53.57l12.872-1.937v-22.84L87.297 79.37l13.564-4.292-17.717-24.362L101 27.737l-13.841-3.182-17.165 22.978zm-29.49 13.054a.66.66 0 0 0-.4.191l-5.105 5.105a.66.66 0 0 0-.097.81l5.978 9.846a25.6 25.6 0 0 0-2.518 5.732L27.525 61.02a.66.66 0 0 0-.525.647v7.22c0 .305.209.57.503.64l10.653 2.604a25.5 25.5 0 0 0 2.611 6.62l-6.166 9.403a.66.66 0 0 0 .087.83l5.104 5.105c.214.214.55.256.811.099l9.662-5.868a25.6 25.6 0 0 0 6.108 2.541l2.255 10.839a.66.66 0 0 0 .646.526h7.22a.66.66 0 0 0 .642-.505l2.655-10.861a25.5 25.5 0 0 0 6.283-2.644l9.522 6.243a.66.66 0 0 0 .83-.084l5.106-5.106a.66.66 0 0 0 .096-.81l-3.476-5.728-1.125.356a.39.39 0 0 1-.439-.152l-5.08-7.436c-3.423 6.699-10.387 11.288-18.429 11.288-11.425 0-20.688-9.264-20.688-20.69 0-8.405 5.013-15.634 12.21-18.872v-5.337a25.5 25.5 0 0 0-3.779 1.665l-.005-.006-9.745-6.391a.66.66 0 0 0-.43-.105z"/></svg>
